img/icons.svg

<svg width="324" height="61" viewBox="0 0 324 61" fill="none" xmlns="http://www.w3.org/2000/svg">
<rect x="0.5" y="0.5" width="323" height="60" rx="4.5" stroke="#7B61FF" stroke-dasharray="10 5"/>
<path d="M79.75 32C80.05 32 80.25 31.8 80.25 31.5C80.25 31.2 80.05 31 79.75 31C79.45 31 79.25 31.2 79.25 31.5C79.25 31.8 79.45 32 79.75 32Z" fill="black"/>
<path d="M89 24H87V22H86V24H78V22H77V24H75C74.4 24 74 24.4 74 25V36C74 36.5 74.4 37 75 37H89C89.5 37 90 36.5 90 36V25C90 24.4 89.5 24 89 24ZM89 36H75V29H89V36ZM75 28V25H77V27H78V25H86V27H87V25H89V28H75Z" fill="black"/>
<path d="M82 32C82.3 32 82.5 31.8 82.5 31.5C82.5 31.2 82.3 31 82 31C81.7 31 81.5 31.2 81.5 31.5C81.5 31.8 81.7 32 82 32Z" fill="black"/>
<path d="M84.25 32C84.55 32 84.75 31.8 84.75 31.5C84.75 31.2 84.55 31 84.25 31C83.95 31 83.75 31.2 83.75 31.5C83.75 31.8 83.95 32 84.25 32Z" fill="black"/>
<path d="M79.75 33C79.45 33 79.25 33.2 79.25 33.5C79.25 33.8 79.45 34 79.75 34C80.05 34 80.25 33.8 80.25 33.5C80.25 33.2 80.05 33 79.75 33Z" fill="black"/>
<path d="M77.5 32C77.8 32 78 31.8 78 31.5C78 31.2 77.8 31 77.5 31C77.2 31 77 31.2 77 31.5C77 31.8 77.2 32 77.5 32Z" fill="black"/>
<path d="M77.5 33C77.2 33 77 33.2 77 33.5C77 33.8 77.2 34 77.5 34C77.8 34 78 33.8 78 33.5C78 33.2 77.8 33 77.5 33Z" fill="black"/>
<path d="M82 33C81.7 33 81.5 33.2 81.5 33.5C81.5 33.8 81.7 34 82 34C82.3 34 82.5 33.8 82.5 33.5C82.5 33.2 82.3 33 82 33Z" fill="black"/>
<path d="M84.25 33C83.95 33 83.75 33.2 83.75 33.5C83.75 33.8 83.95 34 84.25 34C84.55 34 84.75 33.8 84.75 33.5C84.75 33.2 84.55 33 84.25 33Z" fill="black"/>
<path d="M86.5 32C86.8 32 87 31.8 87 31.5C87 31.2 86.8 31 86.5 31C86.2 31 86 31.2 86 31.5C86 31.8 86.2 32 86.5 32Z" fill="black"/>
<path d="M86.5 33C86.2 33 86 33.2 86 33.5C86 33.8 86.2 34 86.5 34C86.8 34 87 33.8 87 33.5C87 33.2 86.8 33 86.5 33Z" fill="black"/>
<path d="M167.3 24.3H152.6C152.3 24.3 152 24.5 152 24.8C152 25.1 152.3 25.4 152.6 25.4H154.3V37.4C154.3 37.7 154.6 38 154.9 38H165.1C165.4 38 165.7 37.7 165.7 37.4V25.4H167.4C167.7 25.4 168 25.1 168 24.8C168 24.5 167.6 24.3 167.3 24.3ZM164.5 36.8H155.4V25.4H164.5V36.8Z" fill="black"/>
<path d="M158.2 23.2H161.6C161.9 23.2 162.2 22.9 162.2 22.6C162.2 22.3 162 22 161.7 22H158.2C157.9 22 157.7 22.3 157.7 22.6C157.7 22.9 157.9 23.2 158.2 23.2Z" fill="black"/>
<path d="M158.2 34C158.5 34 158.8 33.7 158.8 33.4V27.7C158.8 27.4 158.5 27.1 158.2 27.1C157.9 27.1 157.6 27.4 157.6 27.7V33.4C157.7 33.7 157.9 34 158.2 34Z" fill="black"/>
<path d="M161.7 34C162 34 162.3 33.7 162.3 33.4V27.7C162.3 27.4 162 27.1 161.7 27.1C161.4 27.1 161.1 27.5 161.1 27.7V33.4C161.1 33.7 161.3 34 161.7 34Z" fill="black"/>
<path fill-rule="evenodd" clip-rule="evenodd" d="M206.22 27.3447C206.513 27.0518 206.987 27.0518 207.28 27.3447L212 32.0643L216.72 27.3447C217.013 27.0518 217.487 27.0518 217.78 27.3447C218.073 27.6376 218.073 28.1124 217.78 28.4053L212.53 33.6553C212.237 33.9482 211.763 33.9482 211.47 33.6553L206.22 28.4053C205.927 28.1124 205.927 27.6376 206.22 27.3447Z" fill="black"/>
<path d="M133.9 39C133.6 39 133.3 38.9 133.1 38.6C127.7 32.5 126.4 31.1 126.1 30.7C125.4 29.8 125 28.6 125 27.4C125 24.4 127.4 22 130.5 22C131.8 22 133 22.5 134 23.3C135 22.5 136.3 22 137.5 22C140.5 22 143 24.4 143 27.4C143 28.7 142.5 29.9 141.7 30.8L134.7 38.7C134.5 38.9 134.3 39 133.9 39ZM127.9 29.5C128.2 29.9 131.4 33.5 134 36.4L140.2 29.4C140.7 28.9 140.9 28.2 140.9 27.4C140.9 25.6 139.4 24.1 137.6 24.1C136.6 24.1 135.6 24.6 134.9 25.4C134.6 25.7 134.3 25.8 134 25.8C133.7 25.8 133.4 25.6 133.2 25.4C132.5 24.6 131.5 24.1 130.5 24.1C128.7 24.1 127.2 25.6 127.2 27.4C127.1 28.3 127.5 29 127.9 29.5C127.8 29.5 127.8 29.5 127.9 29.5Z" fill="black"/>
<path d="M238 23L232 28.8001V35.0001H244V28.8001L238 23ZM243 34.0001H233V29.2001L238 24.4L243 29.2001V34.0001Z" fill="black"/>
<path d="M236 33.0001H237V30.5001H239V33.0001H240V29.5001H236V33.0001Z" fill="black"/>
<path fill-rule="evenodd" clip-rule="evenodd" d="M289 24H291V26H289V24ZM291 36H289V27H291V36Z" fill="black"/>
<path d="M49 29V31H63V29H49Z" fill="black"/>
<path d="M193 24.2923L191.708 23L186 28.7077L180.292 23L179 24.2923L184.708 30L179 35.7077L180.292 37L186 31.2923L191.708 37L193 35.7077L187.292 30L193 24.2923Z" fill="black"/>
<path d="M37 29H31V23H29V29H23V31H29V37H31V31H37V29Z" fill="black"/>
<path d="M117.5 38.0083L113.8 34.3287C114.8 33.0359 115.5 31.3453 115.5 29.4558C115.5 25.0801 111.9 21.5 107.5 21.5C103.1 21.5 99.5 25.1796 99.5 29.5552C99.5 33.9309 103.1 37.511 107.5 37.511C109.3 37.511 111 36.9144 112.4 35.8204L116.1 39.5L117.5 38.0083ZM107.5 35.5221C104.2 35.5221 101.5 32.837 101.5 29.5552C101.5 26.2735 104.2 23.5884 107.5 23.5884C110.8 23.5884 113.5 26.2735 113.5 29.5552C113.5 32.837 110.8 35.5221 107.5 35.5221Z" fill="black"/>
<path d="M264 22L266.1 28.5H273L267.4 32.5L269.6 39L264 35L258.4 39L260.6 32.5L255 28.5H261.9L264 22Z" fill="black"/>
</svg>

<svg width="324" height="61" fill="none" xmlns="http://www.w3.org/2000/svg"><rect x=".5" y=".5" width="323" height="60" rx="4.5" stroke="#7B61FF" stroke-dasharray="10 5"/><path d="M79.75 32c.3 0 .5-.2.5-.5s-.2-.5-.5-.5-.5.2-.5.5.2.5.5.5Z" fill="#000"/><path d="M89 24h-2v-2h-1v2h-8v-2h-1v2h-2c-.6 0-1 .4-1 1v11c0 .5.4 1 1 1h14c.5 0 1-.5 1-1V25c0-.6-.5-1-1-1Zm0 12H75v-7h14v7Zm-14-8v-3h2v2h1v-2h8v2h1v-2h2v3H75Z" fill="#000"/><path d="M82 32c.3 0 .5-.2.5-.5s-.2-.5-.5-.5-.5.2-.5.5.2.5.5.5ZM84.25 32c.3 0 .5-.2.5-.5s-.2-.5-.5-.5-.5.2-.5.5.2.5.5.5ZM79.75 33c-.3 0-.5.2-.5.5s.2.5.5.5.5-.2.5-.5-.2-.5-.5-.5ZM77.5 32c.3 0 .5-.2.5-.5s-.2-.5-.5-.5-.5.2-.5.5.2.5.5.5ZM77.5 33c-.3 0-.5.2-.5.5s.2.5.5.5.5-.2.5-.5-.2-.5-.5-.5ZM82 33c-.3 0-.5.2-.5.5s.2.5.5.5.5-.2.5-.5-.2-.5-.5-.5ZM84.25 33c-.3 0-.5.2-.5.5s.2.5.5.5.5-.2.5-.5-.2-.5-.5-.5ZM86.5 32c.3 0 .5-.2.5-.5s-.2-.5-.5-.5-.5.2-.5.5.2.5.5.5ZM86.5 33c-.3 0-.5.2-.5.5s.2.5.5.5.5-.2.5-.5-.2-.5-.5-.5ZM167.3 24.3h-14.7c-.3 0-.6.2-.6.5s.3.6.6.6h1.7v12c0 .3.3.6.6.6h10.2c.3 0 .6-.3.6-.6v-12h1.7c.3 0 .6-.3.6-.6s-.4-.5-.7-.5Zm-2.8 12.5h-9.1V25.4h9.1v11.4ZM158.2 23.2h3.4c.3 0 .6-.3.6-.6s-.2-.6-.5-.6h-3.5c-.3 0-.5.3-.5.6s.2.6.5.6Z" fill="#000"/><path d="M158.2 34c.3 0 .6-.3.6-.6v-5.7c0-.3-.3-.6-.6-.6s-.6.3-.6.6v5.7c.1.3.3.6.6.6ZM161.7 34c.3 0 .6-.3.6-.6v-5.7c0-.3-.3-.6-.6-.6s-.6.4-.6.6v5.7c0 .3.2.6.6.6Z" fill="#000"/><path fill-rule="evenodd" clip-rule="evenodd" d="M206.22 27.345a.75.75 0 0 1 1.06 0l4.72 4.72 4.72-4.72a.75.75 0 1 1 1.06 1.06l-5.25 5.25a.75.75 0 0 1-1.06 0l-5.25-5.25a.75.75 0 0 1 0-1.06Z" fill="#000"/><path d="M133.9 39c-.3 0-.6-.1-.8-.4-5.4-6.1-6.7-7.5-7-7.9-.7-.9-1.1-2.1-1.1-3.3 0-3 2.4-5.4 5.5-5.4 1.3 0 2.5.5 3.5 1.3 1-.8 2.3-1.3 3.5-1.3 3 0 5.5 2.4 5.5 5.4 0 1.3-.5 2.5-1.3 3.4l-7 7.9c-.2.2-.4.3-.8.3Zm-6-9.5c.3.4 3.5 4 6.1 6.9l6.2-7c.5-.5.7-1.2.7-2 0-1.8-1.5-3.3-3.3-3.3-1 0-2 .5-2.7 1.3-.3.3-.6.4-.9.4-.3 0-.6-.2-.8-.4-.7-.8-1.7-1.3-2.7-1.3-1.8 0-3.3 1.5-3.3 3.3-.1.9.3 1.6.7 2.1-.1 0-.1 0 0 0ZM238 23l-6 5.8V35h12v-6.2l-6-5.8Zm5 11h-10v-4.8l5-4.8 5 4.8V34Z" fill="#000"/><path d="M236 33h1v-2.5h2V33h1v-3.5h-4V33Z" fill="#000"/><path fill-rule="evenodd" clip-rule="evenodd" d="M289 24h2v2h-2v-2Zm2 12h-2v-9h2v9Z" fill="#000"/><path d="M49 29v2h14v-2H49ZM193 24.292 191.708 23 186 28.708 180.292 23 179 24.292 184.708 30 179 35.708 180.292 37 186 31.292 191.708 37 193 35.708 187.292 30 193 24.292ZM37 29h-6v-6h-2v6h-6v2h6v6h2v-6h6v-2ZM117.5 38.008l-3.7-3.68c1-1.292 1.7-2.983 1.7-4.872 0-4.376-3.6-7.956-8-7.956s-8 3.68-8 8.055c0 4.376 3.6 7.956 8 7.956 1.8 0 3.5-.597 4.9-1.69l3.7 3.679 1.4-1.492Zm-10-2.486c-3.3 0-6-2.685-6-5.967 0-3.282 2.7-5.967 6-5.967s6 2.685 6 5.967c0 3.282-2.7 5.967-6 5.967ZM264 22l2.1 6.5h6.9l-5.6 4 2.2 6.5-5.6-4-5.6 4 2.2-6.5-5.6-4h6.9L264 22Z" fill="#000"/></svg>
